svgs/sharp-regular/podium-star.svg

<svg xmlns="http://www.w3.org/2000/svg" viewBox="0 0 448 512"><!--! Font Awesome Pro 6.6.0 by @fontawesome - https://fontawesome.com License - https://fontawesome.com/license (Commercial License) Copyright 2024 Fonticons, Inc. --><path d="M288 0L176 0l0 24-8 0c-48.6 0-88 39.4-88 88l0 32-56 0L0 144l0 48 24 0 400 0 24 0 0-48-24 0-296 0 0-32c0-22.1 17.9-40 40-40l8 0 0 24 112 0c26.5 0 48-21.5 48-48s-21.5-48-48-48zM47.3 224L80 512l288 0 32.7-288-48.3 0L325.1 464l-202.3 0L95.6 224l-48.3 0zm201.6 85.8L224 256l-24.8 53.8-58.9 7 43.5 40.2-11.6 58.1 51.7-29 51.7 29-11.6-58.1 43.5-40.2-58.9-7z"/></svg>

<svg xmlns="http://www.w3.org/2000/svg" viewBox="0 0 448 512"><!--! Font Awesome Pro 6.5.2 by @fontawesome - https://fontawesome.com License - https://fontawesome.com/license (Commercial License) Copyright 2024 Fonticons, Inc. --><path d="M288 0H176V24h-8c-48.6 0-88 39.4-88 88v32H24 0v48H24 424h24V144H424 128V112c0-22.1 17.9-40 40-40h8V96H288c26.5 0 48-21.5 48-48s-21.5-48-48-48zM47.3 224L80 512H368l32.7-288H352.4L325.1 464H122.9L95.6 224H47.3zm201.6 85.8L224 256l-24.8 53.8-58.9 7 43.5 40.2-11.6 58.1 51.7-29 51.7 29-11.6-58.1 43.5-40.2-58.9-7z"/></svg>
